X:1
T: The Messenger
C:
R:Reel
Q: 232
K:G
M:4/4
L:1/8
D2|G2 Bd g2 dg|ed cB AB cA|BG GB g2 dg|ec AF GF ED|
G2 Bd g2 dg|ed cB AB cA|BG GB g2 dg|ec AF G2 ef|
|:g2 ef g2 eg|fd de fd df|gf ef gf eg|fg af bg ef|
gf ef gf eg|fd de fd df|ef ge af ge|dB Ac BE E2:|
G2 Bd g2 dg|ed cB AB cA|BG GB g2 dg|ec AF GF ED|
G2 Bd g2 dg|ed cB AB cA|BG GB g2 dg|ec AF G2||
